svgs/charts/line-chart-up-04.svg

<svg width="24" height="24" viewBox="0 0 24 24" fill="none" xmlns="http://www.w3.org/2000/svg">
<path d="M21 9L14.5515 13.6061C14.3555 13.746 14.2576 13.816 14.1527 13.8371C14.0602 13.8557 13.9643 13.8478 13.8762 13.8142C13.7762 13.7762 13.691 13.691 13.5208 13.5208L10.4792 10.4792C10.309 10.309 10.2238 10.2238 10.1238 10.1858C10.0357 10.1522 9.9398 10.1443 9.84732 10.1629C9.74241 10.184 9.64445 10.254 9.44853 10.3939L3 15M7.8 21H16.2C17.8802 21 18.7202 21 19.362 20.673C19.9265 20.3854 20.3854 19.9265 20.673 19.362C21 18.7202 21 17.8802 21 16.2V7.8C21 6.11984 21 5.27976 20.673 4.63803C20.3854 4.07354 19.9265 3.6146 19.362 3.32698C18.7202 3 17.8802 3 16.2 3H7.8C6.11984 3 5.27976 3 4.63803 3.32698C4.07354 3.6146 3.6146 4.07354 3.32698 4.63803C3 5.27976 3 6.11984 3 7.8V16.2C3 17.8802 3 18.7202 3.32698 19.362C3.6146 19.9265 4.07354 20.3854 4.63803 20.673C5.27976 21 6.11984 21 7.8 21Z" stroke="#1C1D20" stroke-width="1.5" stroke-linecap="round" stroke-linejoin="round"/>
</svg>

<svg fill="none" xmlns="http://www.w3.org/2000/svg" viewBox="0 0 24 24"><path d="m21 9-6.448 4.606c-.197.14-.294.21-.4.231a.5.5 0 0 1-.276-.023c-.1-.038-.185-.123-.355-.293l-3.042-3.042c-.17-.17-.255-.255-.355-.293a.5.5 0 0 0-.277-.023c-.105.021-.203.091-.398.23L3 15m4.8 6h8.4c1.68 0 2.52 0 3.162-.327a3 3 0 0 0 1.311-1.311C21 18.72 21 17.88 21 16.2V7.8c0-1.68 0-2.52-.327-3.162a3 3 0 0 0-1.311-1.311C18.72 3 17.88 3 16.2 3H7.8c-1.68 0-2.52 0-3.162.327a3 3 0 0 0-1.311 1.311C3 5.28 3 6.12 3 7.8v8.4c0 1.68 0 2.52.327 3.162a3 3 0 0 0 1.311 1.311C5.28 21 6.12 21 7.8 21Z" stroke="#1C1D20" stroke-width="1.5" stroke-linecap="round" stroke-linejoin="round"/></svg>
